build/assets/img/svg/circle-main.svg

<svg width="406" height="406" viewBox="0 0 406 406" fill="none" xmlns="http://www.w3.org/2000/svg">
<path d="M402.98 205.304C404.82 94.8625 315.748 4.28579 205.301 3.01331L204.61 63.0093C281.923 63.9001 346.433 127.37 342.985 204.613C341.409 239.913 402.367 242.09 402.98 205.304Z" fill="url(#paint0_linear)"/>
<path d="M186.38 3.69171C230.606 0.00422736 274.803 11.1324 312.011 35.3236C358.282 65.4073 315.978 118.296 279.307 85.6266C253.261 68.6927 222.323 60.903 191.365 63.4842C181.373 64.3173 171.563 66.2152 162.088 69.1103C161.906 69.1704 161.722 69.2272 161.535 69.2807C161.719 69.2235 161.904 69.1668 162.088 69.1103C184.581 61.6999 171.549 5.438 143.192 12.1511C157.149 7.77726 171.626 4.9218 186.38 3.69171Z" fill="url(#paint1_linear)"/>
<path d="M52.3798 71.4176C28.1158 99.1927 12.0043 133.136 5.82621 169.496L64.9773 179.547C69.3019 154.095 80.58 130.335 97.5648 110.892C114.55 91.4496 136.58 77.0821 161.22 69.3782C207.202 55.0016 180.83 0.382841 143.315 12.1119C108.115 23.1177 76.6438 43.6425 52.3798 71.4176Z" fill="url(#paint2_linear)"/>
<path d="M3.28395 213.654C4.85111 243.033 12.8807 271.705 26.8003 297.625L79.6591 269.237C69.9154 251.093 64.2947 231.023 63.1977 210.457C62.1006 189.892 65.5544 169.338 73.3126 150.26C92.5196 113.721 34.4508 86.5503 17.7339 127.657C6.65068 154.911 1.71678 184.274 3.28395 213.654Z" fill="url(#paint3_linear)"/>
<path d="M121.459 385.624C161.988 403.72 207.384 407.819 250.499 397.277L236.248 338.994C206.068 346.373 174.29 343.504 145.92 330.837C117.55 318.17 92.5238 297.258 79.547 269.028C63.6276 234.397 5.70634 258.186 26.64 297.325C47.573 336.464 80.9306 367.528 121.459 385.624Z" fill="url(#paint4_linear)"/>
<path d="M250.804 397.202C279.356 390.173 306.007 376.935 328.858 358.43L291.1 311.801C275.104 324.754 256.448 334.021 236.462 338.942C216.475 343.862 195.65 344.314 175.468 340.267C133.509 331.852 117.84 389.904 163.671 399.095C192.501 404.877 222.252 404.231 250.804 397.202Z" fill="url(#paint5_linear)"/>
<path d="M402.978 205.304C402.639 234.804 395.777 263.863 382.885 290.399C369.993 316.935 351.39 340.29 328.41 358.79C302.489 379.658 259.956 336.872 290.786 312.053C306.872 299.103 319.894 282.755 328.918 264.179C337.942 245.604 341.23 226.594 342.984 204.613C344.852 237.829 403.393 237.578 402.978 205.304Z" fill="url(#paint6_linear)"/>
<defs>
<linearGradient id="paint0_linear" x1="390.885" y1="126.66" x2="337.159" y2="146.041" gradientUnits="userSpaceOnUse">
<stop stop-color="#B4D1FA"/>
<stop offset="0.466111" stop-color="#B4D1FA"/>
<stop offset="1" stop-color="#8CAAD6"/>
</linearGradient>
<linearGradient id="paint1_linear" x1="254.296" y1="3.57769" x2="237.589" y2="64.8891" gradientUnits="userSpaceOnUse">
<stop stop-color="#D96B84"/>
<stop offset="0.54148" stop-color="#F985A0"/>
<stop offset="1" stop-color="#F985A0"/>
</linearGradient>
<linearGradient id="paint2_linear" x1="90.361" y1="40.6916" x2="128.34" y2="86.1314" gradientUnits="userSpaceOnUse">
<stop stop-color="#9C233A"/>
<stop offset="0.520447" stop-color="#C43B55"/>
<stop offset="1" stop-color="#C43B55"/>
</linearGradient>
<linearGradient id="paint3_linear" x1="63.1637" y1="187.888" x2="7.6684" y2="187.249" gradientUnits="userSpaceOnUse">
<stop stop-color="#71A0DD"/>
<stop offset="0.46875" stop-color="#71A0DD"/>
<stop offset="1" stop-color="#5681B9"/>
</linearGradient>
<linearGradient id="paint4_linear" x1="112.232" y1="312.462" x2="70.7273" y2="355.986" gradientUnits="userSpaceOnUse">
<stop stop-color="#A5364B"/>
<stop offset="0.498793" stop-color="#D6516B"/>
<stop offset="1" stop-color="#D6516B"/>
</linearGradient>
<linearGradient id="paint5_linear" x1="234.375" y1="343.871" x2="235.753" y2="397.89" gradientUnits="userSpaceOnUse">
<stop stop-color="#032B57"/>
<stop offset="0.489583" stop-color="#0A3D76"/>
<stop offset="1" stop-color="#0A3D76"/>
</linearGradient>
<linearGradient id="paint6_linear" x1="311.84" y1="303.761" x2="359.008" y2="332.805" gradientUnits="userSpaceOnUse">
<stop stop-color="#8A2535"/>
<stop offset="0.475402" stop-color="#A62E41"/>
<stop offset="1" stop-color="#A62E41"/>
</linearGradient>
</defs>
</svg>

<svg width="406" height="406" fill="none" xmlns="http://www.w3.org/2000/svg"><path d="M402.98 205.304C404.82 94.862 315.748 4.286 205.301 3.014l-.691 59.995c77.313.891 141.823 64.361 138.375 141.604-1.576 35.3 59.382 37.477 59.995.691z" fill="url(#paint0_linear)"/><path d="M186.38 3.692a199.995 199.995 0 01125.631 31.632c46.271 30.083 3.967 82.972-32.704 50.303A139.998 139.998 0 00162.088 69.11c-.182.06-.366.117-.553.17l.553-.17c22.493-7.41 9.461-63.672-18.896-56.959a199.964 199.964 0 0143.188-8.46z" fill="url(#paint1_linear)"/><path d="M52.38 71.418a200 200 0 00-46.554 98.078l59.151 10.051A140.002 140.002 0 01161.22 69.378c45.982-14.376 19.61-68.995-17.905-57.266A199.996 199.996 0 0052.38 71.418z" fill="url(#paint2_linear)"/><path d="M3.284 213.654A200.004 200.004 0 0026.8 297.625l52.86-28.388a140.001 140.001 0 01-6.347-118.977c19.207-36.539-38.862-63.71-55.58-22.603a200.004 200.004 0 00-14.45 85.997z" fill="url(#paint3_linear)"/><path d="M121.459 385.624a199.994 199.994 0 00129.04 11.653l-14.251-58.283a140 140 0 01-90.328-8.157c-28.37-12.667-53.396-33.579-66.373-61.809-15.92-34.631-73.84-10.842-52.907 28.297a200 200 0 0094.819 88.299z" fill="url(#paint4_linear)"/><path d="M250.804 397.202a199.99 199.99 0 0078.054-38.772L291.1 311.801a140.016 140.016 0 01-54.638 27.141 140.01 140.01 0 01-60.994 1.325c-41.959-8.415-57.628 49.637-11.797 58.828a199.992 199.992 0 0087.133-1.893z" fill="url(#paint5_linear)"/><path d="M402.978 205.304A199.989 199.989 0 01328.41 358.79c-25.921 20.868-68.454-21.918-37.624-46.737a139.986 139.986 0 0038.132-47.874c9.024-18.575 12.312-37.585 14.066-59.566 1.868 33.216 60.409 32.965 59.994.691z" fill="url(#paint6_linear)"/><defs><linearGradient id="paint0_linear" x1="390.885" y1="126.66" x2="337.159" y2="146.041" gradientUnits="userSpaceOnUse"><stop stop-color="#B4D1FA"/><stop offset=".466" stop-color="#B4D1FA"/><stop offset="1" stop-color="#8CAAD6"/></linearGradient><linearGradient id="paint1_linear" x1="254.296" y1="3.578" x2="237.589" y2="64.889" gradientUnits="userSpaceOnUse"><stop stop-color="#D96B84"/><stop offset=".541" stop-color="#F985A0"/><stop offset="1" stop-color="#F985A0"/></linearGradient><linearGradient id="paint2_linear" x1="90.361" y1="40.692" x2="128.34" y2="86.131" gradientUnits="userSpaceOnUse"><stop stop-color="#9C233A"/><stop offset=".52" stop-color="#C43B55"/><stop offset="1" stop-color="#C43B55"/></linearGradient><linearGradient id="paint3_linear" x1="63.164" y1="187.888" x2="7.668" y2="187.249" gradientUnits="userSpaceOnUse"><stop stop-color="#71A0DD"/><stop offset=".469" stop-color="#71A0DD"/><stop offset="1" stop-color="#5681B9"/></linearGradient><linearGradient id="paint4_linear" x1="112.232" y1="312.462" x2="70.727" y2="355.986" gradientUnits="userSpaceOnUse"><stop stop-color="#A5364B"/><stop offset=".499" stop-color="#D6516B"/><stop offset="1" stop-color="#D6516B"/></linearGradient><linearGradient id="paint5_linear" x1="234.375" y1="343.871" x2="235.753" y2="397.89" gradientUnits="userSpaceOnUse"><stop stop-color="#032B57"/><stop offset=".49" stop-color="#0A3D76"/><stop offset="1" stop-color="#0A3D76"/></linearGradient><linearGradient id="paint6_linear" x1="311.84" y1="303.761" x2="359.008" y2="332.805" gradientUnits="userSpaceOnUse"><stop stop-color="#8A2535"/><stop offset=".475" stop-color="#A62E41"/><stop offset="1" stop-color="#A62E41"/></linearGradient></defs></svg>
